X:13
T:Pollonesse 1832-13
O:Södermanland
R:Slängpolska
B:Notbok 1832 från Sörmlands museum
N:[[http://www.sormlandsmusikarkiv.se/noter/1832/1832.html]]
Z:Jonas Brunskog
M: 3/4
L: 1/8
Q:1/4=116
K:D
|:d>c de f>d|B3/2c/2 de d3/2B/2| GF GA BG|B3/2G/2 A2 A,2:| 
|:F3/2A/2 FA FA|G3/2B/2 GB GB|Ec Ec Ec|cB/2c/2 d4:|

